media/images/speedy.svg

<svg width="74" height="22" viewBox="0 0 74 22" fill="none" xmlns="http://www.w3.org/2000/svg">
<path d="M9.54964 0.233743C10.0699 -0.0443071 10.1237 -0.0891545 10.6529 0.179927C13.1105 1.52533 15.5681 2.86177 18.0257 4.1982C18.3755 4.39553 18.7432 4.56595 19.0751 4.79018C17.2454 5.88445 15.3977 6.93386 13.559 8.01019C13.3168 8.16267 13.0387 8.2703 12.8414 8.48556C12.7966 8.77258 12.7786 9.07754 12.8593 9.37353C13.0208 9.5888 13.254 9.72334 13.5051 9.81303C13.6486 9.87582 13.7652 9.85787 13.8818 9.78612C15.7834 8.69186 17.6669 7.57069 19.5684 6.48539C19.5684 9.68746 19.5684 12.8985 19.5684 16.1006C19.5864 16.3786 19.4249 16.6477 19.1827 16.7822C16.3215 18.4685 13.4603 20.1547 10.608 21.841C10.3569 22.0203 10.025 22.0652 9.75594 21.8858C6.87677 20.1906 3.9976 18.4954 1.11843 16.8002C0.804506 16.6387 0.65203 16.271 0.678938 15.9301C0.687908 12.7819 0.669964 9.63364 0.696873 6.48539C3.46841 8.064 6.20407 9.69643 8.96663 11.284C9.0922 11.3737 9.30747 11.4275 9.28953 11.6248C9.2985 14.0107 9.28953 16.4055 9.2985 18.7914C9.28056 18.9977 9.40613 19.1232 9.57655 19.2219C9.68418 19.2847 10.0071 19.4551 10.1237 19.4551C10.2941 19.4551 10.4645 19.3385 10.617 19.2578C10.7874 19.1591 11.0296 19.0425 10.9847 18.8003C10.9847 16.1095 10.9937 13.4097 10.9847 10.7189C11.0116 10.5665 10.8951 10.4409 10.7695 10.3781C7.58535 8.51247 4.38328 6.67375 1.20813 4.79915C3.97966 3.24745 6.77811 1.75854 9.54964 0.233743Z" fill="url(#paint0_linear)"/>
<path d="M62.881 4.87988C63.6076 4.85297 64.343 4.86194 65.0696 4.87091C65.0606 8.69186 65.0696 12.5038 65.0606 16.3248C63.8049 16.5939 62.5133 16.7374 61.2307 16.6656C60.1543 16.5849 59.0421 16.262 58.2618 15.4817C57.5084 14.7641 57.1765 13.7057 57.1317 12.6832C57.0958 11.6338 57.3828 10.5306 58.0735 9.71437C58.6116 9.05063 59.4099 8.64701 60.2261 8.44072C61.0961 8.22545 62.011 8.31515 62.8721 8.54835C62.89 7.32852 62.89 6.09971 62.881 4.87988ZM60.558 10.396C59.8045 10.71 59.365 11.5262 59.365 12.3245C59.3112 13.1855 59.6521 14.1363 60.4503 14.5578C61.2038 14.9256 62.0738 14.8897 62.8721 14.7372C62.899 13.3111 62.89 11.876 62.881 10.4499C62.1455 10.1718 61.3024 10.118 60.558 10.396ZM26.86 8.53938C28.1516 8.01019 29.7033 8.13576 30.8873 8.87125C30.8873 9.51704 30.8873 10.1718 30.8873 10.8176C30.1428 10.2974 29.2459 9.90272 28.322 9.96551C27.9453 9.98345 27.5327 10.2167 27.4969 10.6292C27.4251 11.006 27.739 11.3019 28.0799 11.4006C28.932 11.6787 29.9096 11.6787 30.6451 12.2527C31.264 12.7281 31.4344 13.5712 31.3716 14.3157C31.3178 15.0153 30.9949 15.7238 30.4029 16.1185C29.6944 16.6028 28.8064 16.7015 27.9722 16.7015C27.1202 16.7105 26.2681 16.5132 25.5146 16.1006C25.5057 15.4279 25.5057 14.7641 25.5146 14.0914C26.4116 14.6206 27.443 15.0511 28.5014 14.9076C28.8871 14.8628 29.2638 14.5489 29.2369 14.1273C29.1921 13.7326 28.7885 13.5712 28.4656 13.4636C27.5955 13.1945 26.591 13.0958 25.9272 12.4142C25.3532 11.8132 25.3801 10.8983 25.5236 10.127C25.6581 9.40941 26.1873 8.80846 26.86 8.53938ZM32.3134 8.89816C33.8023 8.36896 35.4079 8.01916 36.9865 8.32412C38.009 8.51247 39.0135 9.0596 39.5786 9.96551C40.1796 10.9163 40.2513 12.1092 40.1078 13.1945C39.9733 14.1632 39.4979 15.1229 38.6906 15.6969C37.8206 16.3427 36.7084 16.549 35.65 16.567C35.6411 15.9301 35.6411 15.3023 35.65 14.6744C36.3317 14.6475 37.0672 14.4502 37.5157 13.8941C37.9462 13.347 38.0987 12.6025 38 11.9119C37.9013 11.2481 37.4887 10.6023 36.8429 10.3602C36.0895 10.0731 35.2464 10.118 34.484 10.3422C34.5019 13.4277 34.484 16.5132 34.493 19.5986C33.7665 19.6076 33.0399 19.6255 32.3134 19.5896C32.3224 16.0288 32.3044 12.468 32.3134 8.89816ZM42.1169 8.98785C42.8524 8.34206 43.8749 8.1537 44.8257 8.17164C45.6688 8.18061 46.5747 8.35999 47.2205 8.95197C47.8753 9.53498 48.1444 10.414 48.261 11.2571C48.3596 11.9477 48.3686 12.6563 48.3507 13.347C46.5747 13.3559 44.7988 13.347 43.0318 13.3559C43.1215 14.0645 43.6328 14.7103 44.3503 14.8628C45.5702 15.1319 46.781 14.6475 47.8932 14.1901C47.8932 14.8538 47.9111 15.5176 47.8842 16.1813C46.5568 16.5759 45.1576 16.8719 43.7673 16.6477C42.8435 16.4952 41.9734 15.957 41.516 15.1229C40.924 14.0466 40.7984 12.755 40.942 11.5531C41.0406 10.6023 41.3725 9.62468 42.1169 8.98785ZM43.6148 10.405C43.2471 10.71 43.1125 11.1853 43.0318 11.6338C44.0723 11.6428 45.1127 11.6428 46.1532 11.6338C46.0993 11.2571 46.0366 10.8624 45.8034 10.5485C45.5881 10.2705 45.2293 10.1449 44.8885 10.109C44.449 10.0642 43.9646 10.109 43.6148 10.405ZM49.9203 9.35559C50.5302 8.61114 51.5168 8.26133 52.4586 8.22545C53.3645 8.18061 54.3422 8.25236 55.1046 8.79052C55.8311 9.28384 56.1899 10.1449 56.3424 10.9791C56.4859 11.7773 56.5217 12.5935 56.4769 13.3918C54.701 13.3918 52.925 13.3828 51.1581 13.3918C51.2567 14.1004 51.777 14.7552 52.4945 14.8987C53.7054 15.1498 54.9073 14.6834 56.0105 14.217C56.0015 14.8897 56.0284 15.5534 55.9926 16.2261C54.6292 16.6028 53.1941 16.9437 51.7859 16.6567C50.9607 16.4952 50.1894 16.0288 49.7319 15.3113C49.1848 14.4592 49.0054 13.4187 48.9964 12.4231C49.0234 11.3468 49.2117 10.1987 49.9203 9.35559ZM51.8846 10.3333C51.4272 10.6113 51.2298 11.1674 51.167 11.6697C52.1985 11.6697 53.23 11.6607 54.2615 11.6787C54.2525 11.1405 54.0641 10.4947 53.526 10.2705C53.0058 10.0642 52.3869 10.0552 51.8846 10.3333ZM65.6705 8.35999C66.4329 8.35103 67.1953 8.35103 67.9577 8.35999C68.442 9.73231 68.9354 11.1046 69.4197 12.4859C69.5094 12.755 69.5991 13.033 69.7336 13.2842C70.3346 11.6518 70.8907 10.0014 71.4737 8.35999C72.2271 8.35103 72.9895 8.35103 73.7429 8.35999C72.4962 12.0285 71.2225 15.688 69.9668 19.3564C69.922 19.4551 69.904 19.6345 69.7516 19.6076C69.0251 19.6166 68.3075 19.6076 67.581 19.6076C67.868 18.6748 68.1999 17.742 68.4959 16.8091C68.5317 16.7015 68.5228 16.5939 68.4689 16.4952C67.5361 13.7865 66.6033 11.0777 65.6705 8.35999Z" fill="#1A1A1A"/>
<defs>
<linearGradient id="paint0_linear" x1="0.675915" y1="11" x2="19.5698" y2="11" gradientUnits="userSpaceOnUse">
<stop stop-color="#BB042B"/>
<stop offset="1" stop-color="#F8001A"/>
</linearGradient>
</defs>
</svg>

<svg width="74" height="22" fill="none" xmlns="http://www.w3.org/2000/svg"><path d="M9.55.234c.52-.278.574-.323 1.103-.054a2982.88 2982.88 0 0 0 7.373 4.018c.35.198.717.368 1.05.592-1.83 1.094-3.678 2.144-5.517 3.22-.242.153-.52.26-.718.476-.044.287-.062.592.018.888.162.215.395.35.646.439.144.063.26.045.377-.027 1.901-1.094 3.785-2.215 5.686-3.3V16.1a.744.744 0 0 1-.385.681 7225.042 7225.042 0 0 0-8.575 5.059c-.251.18-.583.224-.852.045L1.118 16.8c-.313-.161-.466-.529-.44-.87.01-3.148-.008-6.296.019-9.445 2.771 1.579 5.507 3.211 8.27 4.799.125.09.34.143.323.34.009 2.387 0 4.781.009 7.167-.018.207.107.332.278.43.107.064.43.234.547.234.17 0 .34-.116.493-.197.17-.099.413-.215.368-.458 0-2.69.009-5.39 0-8.081.027-.152-.09-.278-.215-.34-3.185-1.867-6.387-3.705-9.562-5.58C3.98 3.247 6.778 1.76 9.55.234z" fill="url(#a)"/><path d="M62.881 4.88a44.508 44.508 0 0 1 2.189-.01c-.01 3.822 0 7.634-.01 11.455-1.255.269-2.547.412-3.83.34-1.076-.08-2.188-.403-2.968-1.183-.754-.718-1.086-1.776-1.13-2.799-.036-1.05.25-2.152.942-2.969.538-.663 1.336-1.067 2.152-1.273.87-.216 1.785-.126 2.646.107.018-1.22.018-2.448.009-3.668zm-2.323 5.516c-.754.314-1.193 1.13-1.193 1.928-.054.861.287 1.812 1.085 2.234.754.368 1.624.332 2.422.18.027-1.427.018-2.862.009-4.288-.736-.278-1.579-.332-2.323-.054zM26.86 8.539a4.528 4.528 0 0 1 4.027.332v1.947c-.744-.52-1.641-.915-2.565-.852-.377.017-.79.25-.825.663-.072.377.242.673.583.772.852.278 1.83.278 2.565.852.619.475.79 1.318.727 2.063-.054.7-.377 1.408-.97 1.803-.708.484-1.596.582-2.43.582a5.01 5.01 0 0 1-2.457-.6 75.6 75.6 0 0 1 0-2.01c.897.53 1.928.96 2.986.817.386-.045.763-.36.736-.78-.045-.395-.448-.557-.771-.664-.87-.27-1.875-.368-2.539-1.05-.574-.6-.547-1.516-.403-2.287.134-.718.663-1.319 1.336-1.588zm5.453.36c1.49-.53 3.095-.88 4.673-.575 1.023.188 2.028.736 2.593 1.642.6.95.672 2.143.529 3.229-.135.968-.61 1.928-1.417 2.502-.87.646-1.983.852-3.041.87a67.08 67.08 0 0 1 0-1.893c.682-.026 1.417-.224 1.866-.78.43-.547.583-1.292.484-1.982-.099-.664-.511-1.31-1.157-1.552-.754-.287-1.597-.242-2.359-.018.018 3.086 0 6.171.009 9.257-.727.009-1.453.026-2.18-.01.01-3.56-.009-7.121 0-10.69zm9.804.089c.735-.646 1.758-.834 2.709-.816.843.009 1.749.188 2.395.78.654.583.923 1.462 1.04 2.305.099.69.108 1.4.09 2.09-1.776.009-3.552 0-5.32.009.09.709.602 1.354 1.32 1.507 1.22.269 2.43-.215 3.542-.673 0 .664.018 1.328-.009 1.991-1.327.395-2.726.69-4.117.467-.924-.153-1.794-.691-2.251-1.525-.592-1.076-.718-2.368-.574-3.57.099-.95.43-1.928 1.175-2.565zm1.498 1.417c-.368.305-.503.78-.583 1.229 1.04.009 2.08.009 3.121 0-.054-.377-.116-.772-.35-1.085-.215-.278-.574-.404-.914-.44-.44-.045-.924 0-1.274.296zm6.305-1.05c.61-.744 1.597-1.094 2.539-1.13.905-.044 1.883.027 2.646.566.726.493 1.085 1.354 1.237 2.188.144.798.18 1.615.135 2.413-1.776 0-3.552-.01-5.319 0 .099.708.619 1.363 1.337 1.507 1.21.25 2.412-.216 3.516-.682-.01.673.017 1.336-.018 2.01-1.364.376-2.799.717-4.207.43-.825-.162-1.597-.628-2.054-1.346-.547-.852-.727-1.892-.736-2.888.027-1.076.216-2.224.924-3.067zm1.965.978c-.458.278-.655.834-.718 1.337 1.032 0 2.063-.01 3.094.009-.009-.539-.197-1.184-.735-1.409-.52-.206-1.14-.215-1.641.063zM65.67 8.36a97.311 97.311 0 0 1 2.287 0c.484 1.372.977 2.745 1.462 4.126.09.269.18.547.314.798.6-1.632 1.157-3.283 1.74-4.924a95.786 95.786 0 0 1 2.269 0c-1.247 3.668-2.52 7.328-3.776 10.996-.045.1-.063.278-.215.252-.727.009-1.444 0-2.171 0 .287-.933.619-1.866.915-2.799a.384.384 0 0 0-.027-.314c-.933-2.709-1.866-5.417-2.798-8.135z" fill="#1A1A1A"/><defs><linearGradient id="a" x1=".676" y1="11" x2="19.57" y2="11" gradientUnits="userSpaceOnUse"><stop stop-color="#BB042B"/><stop offset="1" stop-color="#F8001A"/></linearGradient></defs></svg>
